**kern	**kern	**kern
*staff3	*staff2	*staff1
*tb48	*tb48	*tb48
=1-	=1-	=1-
*clefF4	*clefG2	*clefG2
*k[f#c#]	*k[f#c#]	*k[f#c#]
*M3/8	*M3/8	*M3/8
4.D\	4.A/ 4.d/ 4.f#/	8d/
.	.	8f#/
.	.	8g#/
=2	=2	=2
4.C#;/	4.A;/ 4.e;/ 4.a;/	4.a;/
=3	=3	=3
4.r	4.r	8a/
.	.	8b\
.	.	8cc#\
=4	=4	=4
4BB/	4d/ 4f#/ 4dd/	8dd\
.	.	8f#/
8GG/	8d/ 8g/ 8b/	8b\
=5	=5	=5
4AA/	4d/ 4f#/ 4a/	8a/
.	.	8b\
8A\	8F#/ 8c#/ 8g/	8g/
=6	=6	=6
!!linebreak:original
4.D\	16A/LL	4.f#/
.	16d/	.
.	16f#/	.
.	16d/	.
.	16A/	.
.	16d/JJ	.
=7	=7	=7
4.DD/ 4.D/	16A/LL	8f#/
.	16d/	.
.	16f#/	8e/
.	16d/	.
.	16A/	8d/
.	16d/JJ	.
=8	=8	=8
4.DD#/ 4.D#/	16B/LL	8.b\
.	16f#/	.
.	16a/	.
.	16f#/	16ccn\
.	16B/	8b\
.	16f#/JJ	.
=9	=9	=9
4.BBB/ 4.BB/	16B/LL	8a/
.	16d#/	.
.	16a/	8g/
.	16d#/	.
.	16B/	8f#/
.	16d#/JJ	.
=10	=10	=10
!!linebreak:original
4.EE/ 4.E/	4.B/ 4.e/ 4.g/	4.g/
=11	=11	=11
4r	4r	8b\
.	.	8ccn\
8r	8r	8b\
=12	=12	=12
8BB/	8B/ 8d#/ 8a/	24a/LL
.	.	24f#/JJ
.	.	24g/
4E\	4B/ 4e/ 4g/	4e/
=13	=13	=13
4r	4r	8a/
.	.	8b\
8r	8r	8a/
=14	=14	=14
!!linebreak:original
8AA/	8F#/ 8c#/ 8g/	24g/LL
.	.	24e/JJ
.	.	24f#/
4D\	4A/ 4d/ 4f#/	4d/
=15	=15	=15
4r	4r	8a/
.	.	8b\
8r	8r	8cc#\
=16	=16	=16
4B\	4d/ 4g/ 4dd/	8dd\
.	.	16b/LL
.	.	16g/JJ
8A\	8d/ 8f#/	8f#/
=17	=17	=17
!!linebreak:original
4r	4r	8f#/
.	.	8g/
8r	8r	8a/
=18	=18	=18
4G\	4d/ 4g/ 4b/	8.b\
.	.	16cc#\
8F#;\	8d;/ 8a;/	8dd;\
=19	=19	=19
4AA/	4A/ 4d/ 4f#/	8f#/
.	.	8g/
8AAA/	8E/ 8c#/ 8e/	8e/
=20	=20	=20
*	*^	*
4DD/	4A/ 4d/	4dd/	4d/
*	*v	*v	*
8r	8r	8a#/
=21	=21	=21
!!linebreak:original
4D\	4A/ 4d/ 4f#/	4f#/
8r	8r	8a/
=22	=22	=22
4D\	4A/ 4d/ 4f#/	4dd\
8r	8r	8r
=23	=23	=23
8AA/L	4A/ 4d/ 4f#/	8f#/
8AAA/J	.	8g/
8r	8E/ 8c#/	8e/
=24	=24	=24
4DD/	4E/ 4d/	4d/
8r	8r	8r
=25	=25	=25
!!linebreak:original
4.D\	4.A/ 4.d/ 4.f#/	8f#/
.	.	8e/
.	.	8d/
=26	=26	=26
4.C#;/	4.A^;/ 4.e^;/ 4.a^;/	4.a;/
=27	=27	=27
4.r	4.r	8a/
.	.	8b\
.	.	8cc#\
=28	=28	=28
4BB/	4d/ 4f#/ 4dd/	8dd\
.	.	8f#/
8GG/	8d/ 8g/ 8b/	8b\
=29	=29	=29
4AA/	4d/ 4f#/ 4a/	8a/
.	.	8b\
8A\	8F#/ 8c#/ 8g/	8g/
=30	=30	=30
!!linebreak:original
4.D\	16A/LL	4.f#/
.	16d/	.
.	16f#/	.
.	16d/	.
.	16A/	.
.	16d/JJ	.
=31	=31	=31
4.DD/ 4.D/	16A/LL	8f#/
.	16d/	.
.	16f#/	8e/
.	16d/	.
.	16A/	8d/
.	16d/JJ	.
=32	=32	=32
4.DD#/ 4.D#/	16B/LL	8.b\
.	16f#/	.
.	16a/	.
.	16f#/	16ccn\
.	16B/	8b\
.	16f#/JJ	.
=33	=33	=33
4.BBB/ 4.BB/	16B/LL	8a/
.	16d#/	.
.	16a/	8f#/
.	16d#/	.
.	16B/	8g/
.	16d#/JJ	.
=34	=34	=34
!!linebreak:original
4.EE/ 4.E/	4.B/ 4.e/ 4.g/	4.e/
=35	=35	=35
4r	4r	8b\
.	.	8ccn\
8r	8r	8b\
=36	=36	=36
8BB/	8B/ 8d#/ 8a/	24b\LL
.	.	24cc#\JJ
.	.	24dd#\
4E\	4B/ 4e/ 4g/	4ee\
=37	=37	=37
4r	4r	8a/
.	.	8b\
8r	8r	8a/
=38	=38	=38
!!linebreak:original
8AA/	8F#/ 8c#/ 8g/	24g/LL
.	.	24b/JJ
.	.	24cc#\
4D\	4A/ 4d/ 4f#/	4dd\
=39	=39	=39
4.BB\ 4.B\	4.d/ 4.g/ 4.dd/	8dd\
.	.	8b\
.	.	8g/
=40	=40	=40
4.AA\ 4.A\	4.d/ 4.f#/	8f#/
.	.	16a/LL
.	.	16g/JJ
.	.	8f#/
=41	=41	=41
!!linebreak:original
4.GG/ 4.G/	4.d/ 4.g/ 4.b/	8b\
.	.	8g/
.	.	8e/
=42	=42	=42
4.FF#/ 4.F#/	4.d^;/ 4.f#^;/ 4.a^;/	24d/LL
.	.	24f#/JJ
.	.	24a/
.	.	4dd\
=43	=43	=43
4AA/	4A/ 4d/ 4f#/	8f#/
.	.	8g/
8AAA/	8E/ 8c#/ 8e/	8c#/
=44	=44	=44
*	*^	*
4DD/	4A/ 4d/	4dd/	4d/
*	*v	*v	*
8r	8r	8r
==	==	==
*-	*-	*-
